resources/svg/solid/hdd.svg

<svg xmlns="http://www.w3.org/2000/svg" fill="currentColor" stroke="none" viewBox="0 0 24 24"><path d="M20 13H4a2 2 0 0 0-2 2v4a2 2 0 0 0 2 2h16a2 2 0 0 0 2-2v-4a2 2 0 0 0-2-2zm-4 5h-2v-2h2v2zm4 0h-2v-2h2v2zm.775-7H21l-1.652-7.434A2 2 0 0 0 17.396 2H6.604a2 2 0 0 0-1.952 1.566L3 11h17.775z"/></svg>

<svg xmlns="http://www.w3.org/2000/svg" fill="currentColor" stroke="none" viewBox="0 0 24 24"><path d="M20 13H4c-1.104 0-2 .896-2 2v4c0 1.104.896 2 2 2h16c1.104 0 2-.896 2-2v-4C22 13.896 21.104 13 20 13zM16 18h-2v-2h2V18zM20 18h-2v-2h2V18zM20.775 11H21l-1.652-7.434C19.145 2.651 18.333 2 17.396 2H6.604C5.667 2 4.855 2.651 4.652 3.566L3 11h.132H20.775z"/></svg>
